data/chains/V2/avalanche/avalanche.branded.svg

<svg width="24" height="24" viewBox="0 0 24 24" fill="none" xmlns="http://www.w3.org/2000/svg">
<path d="M7.01711 20.7492H3.65727C2.95002 20.7492 2.60003 20.7492 2.38858 20.6179C2.27548 20.5469 2.18119 20.4496 2.11366 20.3343C2.04614 20.2191 2.00738 20.0893 2.00069 19.9559C1.98756 19.7065 2.16255 19.4061 2.51254 18.7995L10.813 4.37579C11.1688 3.76332 11.3496 3.45709 11.5756 3.3448C11.6954 3.28315 11.8281 3.25098 11.9628 3.25098C12.0975 3.25098 12.2302 3.28315 12.35 3.3448C12.5745 3.45709 12.7495 3.76332 13.0995 4.37579L14.813 7.31273L14.8188 7.32586C15.1003 7.74146 15.3234 8.19352 15.4809 8.66892C15.5756 9.04369 15.5756 9.45054 15.4809 9.83115C15.3231 10.3113 15.1003 10.7676 14.8188 11.1873L10.4571 18.7878L10.444 18.8126C10.2209 19.2661 9.93363 19.6875 9.59386 20.0623C9.30016 20.3365 8.94741 20.5395 8.56287 20.6558C8.20705 20.7492 7.81332 20.7492 7.01857 20.7492M15.5129 20.7492H20.3252C21.0441 20.7492 21.3999 20.7492 21.6129 20.6121C21.7257 20.5408 21.8196 20.4435 21.887 20.3283C21.9542 20.213 21.9927 20.0833 21.9993 19.95C22.0124 19.7065 21.8433 19.4192 21.5064 18.849L21.4685 18.7878L19.0565 14.7251L19.0317 14.6755C18.6934 14.1126 18.5184 13.8253 18.2997 13.713C18.181 13.6512 18.0492 13.6188 17.9154 13.6188C17.7816 13.6188 17.6499 13.6512 17.5312 13.713C17.3066 13.8253 17.1316 14.1257 16.7816 14.7251L14.3682 18.7936V18.8068C14.0124 19.4046 13.8374 19.7065 13.8505 19.95C13.8574 20.084 13.8959 20.2144 13.9631 20.3306C14.0303 20.4467 14.1242 20.5451 14.237 20.6179C14.444 20.7492 14.7999 20.7492 15.5129 20.7492Z" fill="#E84142"/>
</svg>

<svg xmlns="http://www.w3.org/2000/svg" width="24" height="24" fill="none" viewBox="0 0 24 24">
    <path fill="#E84142" d="M7.017 20.75h-3.36c-.707 0-1.057 0-1.268-.132A.83.83 0 0 1 2 19.956c-.013-.25.162-.55.512-1.157l8.3-14.423c.356-.613.537-.919.763-1.031a.85.85 0 0 1 .774 0c.225.112.4.418.75 1.03l1.713 2.938.006.013c.281.415.504.868.662 1.343.095.375.095.782 0 1.162a5.5 5.5 0 0 1-.662 1.356l-4.362 7.6-.013.026c-.223.453-.51.875-.85 1.25a2.6 2.6 0 0 1-1.031.593c-.356.093-.75.093-1.544.093m8.494 0h4.812c.72 0 1.075 0 1.288-.137a.83.83 0 0 0 .386-.662c.013-.244-.156-.53-.493-1.101l-.038-.061-2.411-4.063-.025-.05c-.339-.562-.514-.85-.732-.962a.83.83 0 0 0-.769 0c-.224.112-.4.413-.75 1.012l-2.413 4.069v.013c-.356.598-.53.9-.518 1.143a.85.85 0 0 0 .387.668c.207.131.563.131 1.276.131"/>
</svg>
